X: 199
T: Sheguiandah Bay
T: Waltz, D
C: Don Pettigrew
L: 1/16
M: 3/4
K: D
|: (3A2B2c2| d4A4 F2G2| F4E4D4| B,4A,4 G,2B,2| A,8 D2E2| F4E4D4| d4A4F4| E8 E2F2 | E8 (3A2B2c2|
 d4A4 F2G2| F4E4D4| B,4A,4G,2B,2| A,8D2E2| F4d4F4| E4F4E4| D8 D2E2| D8:| 
|: F2G2| A4d4f4| a4f4 d2e2| d4B4 G2B2| A8 F2G2| A4d4f4| a4f4d4| e4 e2d2 e2f2| e4F4G4|
 A4d4f4| a4f4 d2e2| d4B4 G2B2| A8 d2e2| f4a4f4| g4e4c4| d4 d2c2 d2e2| d8:| 
D: Kinnon and Betty Beaton, Saturday Night Lively, KB20M98
